packages/tokens/icons/thumbsDown/size16Px.svg

<svg viewBox="0 0 16 16" fill="none" xmlns="http://www.w3.org/2000/svg" width="1em" height="1em"><path d="M1.5 10C1.5 10.2761 1.72386 10.5 2 10.5H4C4.27614 10.5 4.5 10.2761 4.5 10L4.5 3C4.5 2.72386 4.27614 2.5 4 2.5H2C1.72386 2.5 1.5 2.72386 1.5 3L1.5 10Z" stroke="currentColor"/><path d="M12 2.5L6.97214 2.5C6.66165 2.5 6.35542 2.57229 6.07771 2.71115L4.5 3.5" stroke="currentColor"/><path d="M9.5 11C9.22386 11 9 10.7761 9 10.5C9 10.2239 9.22386 10 9.5 10V11ZM9.5 10H13.5V11H9.5V10ZM13.5 9H13V8H13.5V9ZM14 9.5C14 9.22386 13.7761 9 13.5 9V8C14.3284 8 15 8.67157 15 9.5H14ZM13.5 10C13.7761 10 14 9.77614 14 9.5H15C15 10.3284 14.3284 11 13.5 11V10Z" fill="currentColor"/><path d="M11 8.5H13C13.5523 8.5 14 8.05228 14 7.5V7.5C14 6.94772 13.5523 6.5 13 6.5H11" stroke="currentColor" stroke-linecap="round"/><path d="M12 6.5H12.5C13.0523 6.5 13.5 6.05228 13.5 5.5V5.5C13.5 4.94772 13.0523 4.5 12.5 4.5H11" stroke="currentColor" stroke-linecap="round"/><path d="M11 4.5H12C12.5523 4.5 13 4.05229 13 3.5V3.5C13 2.94772 12.5523 2.5 12 2.5H10.5" stroke="currentColor" stroke-linecap="round"/><path d="M4.5 10.0001L5.44152 10.0001C5.78862 10.0001 6.1109 10.18 6.29295 10.4756L7.48493 12.4104C7.49482 12.4265 7.50005 12.445 7.50005 12.4638L7.50004 13.5229C7.50004 14.0625 7.93748 14.5 8.47709 14.5V14.5C8.80378 14.5 9.11005 14.3349 9.29126 14.0631V14.0631C9.7432 13.3852 9.91025 12.5512 9.75047 11.7523L9.50002 10.5" stroke="currentColor"/></svg>

<svg xmlns="http://www.w3.org/2000/svg" fill="none" viewBox="0 0 16 16" width="1em" height="1em"><path stroke="currentColor" d="M1.5 10a.5.5 0 0 0 .5.5h2a.5.5 0 0 0 .5-.5V3a.5.5 0 0 0-.5-.5H2a.5.5 0 0 0-.5.5v7ZM12 2.5H6.972a2 2 0 0 0-.894.211L4.5 3.5"/><path fill="currentColor" d="M9.5 11a.5.5 0 0 1 0-1v1Zm0-1h4v1h-4v-1Zm4-1H13V8h.5v1Zm.5.5a.5.5 0 0 0-.5-.5V8A1.5 1.5 0 0 1 15 9.5h-1Zm-.5.5a.5.5 0 0 0 .5-.5h1a1.5 1.5 0 0 1-1.5 1.5v-1Z"/><path stroke="currentColor" stroke-linecap="round" d="M11 8.5h2a1 1 0 0 0 1-1v0a1 1 0 0 0-1-1h-2m1 0h.5a1 1 0 0 0 1-1v0a1 1 0 0 0-1-1H11m0 0h1a1 1 0 0 0 1-1v0a1 1 0 0 0-1-1h-1.5"/><path stroke="currentColor" d="M4.5 10h.942a1 1 0 0 1 .851.476l1.192 1.934c.01.017.015.035.015.054v1.059c0 .54.437.977.977.977a.98.98 0 0 0 .814-.437 3.084 3.084 0 0 0 .46-2.31L9.5 10.5"/></svg>
